X: 25058
T: Maids Of Arrochar, The
R: jig
M: 6/8
K: Fmajor
F/G/|{G}A3/2TA/G/F/ {G}A3/2TA/G/F/|{G}Ac3/2d/ c2f/g/|{g}a3/2{b}Ta/g/f/ {g}a3/2{b}Ta/g/f/|g2{e}f d2e/f/|
A3/2A/G/F/ {G}A3/2A/G/F/|Ac3/2{c}d/ c2f/g/|{g}a{e}f3/2c/ {c}dA A/4c3/4|1 G3/2TG/F {E}F2:|2 G3/2TG/F {E}F3/2c/{d}c/B/|
|:Acd/A/ Acd|{d}f3/2g/{g}a/g/ fd3/2c/|Acd/A/ Aca|{ba}g2{e}f d3/2Td/c/d/|
fa a/4c'3/4 af3/2c/|{c}d/c/{c}d/e/{e}f/d/ cAF|A{e}f3/2c/ {c}dA A/4c3/4|1 G3/2TG/F {E}F3/2 c/{d}c/B/:|2 G3/2TG/F {E}F2||

